X:360
T:Da Guiser's March 
C:Joe Buchanan's Scottish Tome - Page 021.0
I:021 0
C:J. Stove
R:March
Z:Carl Allison
L:1/8
M:4/4
K:D
A,2 | D>EFA | d2 Ad |  c>d e/2d/2c/B/ | ADFA |
| GEA>G | FDDF | E/F/G/A/ B/A/G/F/| E/A/C/[A,E]/ |
| D>EFA | d2 fd | c>d e/d/c/B/ | Ad F>D |
| GBE>G | FD d>f | e/2d/2c/2B/2 A/G/F/E/ | FD D |]
f/2g/2 | a>fdA | [GB]2> d2 | c>d e/2d/2c/2B/2 | Adfa |
| bBg>b | aAd>f | g/2a/2b/2a/2 g/2f/2e/2d/2 | cA Af/2g/2 |
| af/dA | [GB]>G Bd | cd/ e/2d/2c/2B/2 | Adfa |
| b[GB][GB]>b | a[FA][FA]>a | g/f/2e/2d/2 c/2B/A/G/ | FD D |]

